X:81
T:Padispanas
C:Traditional
O:Lithuania
Z:Bert Van Vreckem, 2001-08-11 <http://flanders.blackmill.net/music/>
Z:Transcribed from a recording by Bert Blancquaert and Hilde Raskin (2001-08-09, Dworp, Flanders),
Z:performed by Edvinas Vilkas and Lina Duduliene
M:3/4
L:1/4
K:G
"G"d B d|e d c|d c B|"D"A2 A|c A c|f2 f|f e>d|"G"B2 d|d B d|e d c|d>c d|"C"e3|"D7"f e d|c B A|"G"!fine!G3:|
"G"B G B|c B G|B A G|"D"A2 A|A F A|d2 d|d c>B|"G"G2 G|B G B|c B G|B A B|"C"c3|"D7"d c B|A G F|"G"!D.C.!G3||

